src/assets/icons/nut.svg

<svg viewBox="0 0 56 56" fill="none" xmlns="http://www.w3.org/2000/svg">
<path fill-rule="evenodd" clip-rule="evenodd" d="M26.1303 6.03679C27.293 5.39081 28.707 5.39081 29.8697 6.03679L46.6697 15.3701C47.8919 16.0492 48.65 17.3375 48.65 18.7356V37.2643C48.65 38.6626 47.8919 39.9509 46.6697 40.6299L29.8697 49.9632C28.707 50.6091 27.293 50.6093 26.1303 49.9632L9.33028 40.6299C8.10804 39.9509 7.35001 38.6626 7.35001 37.2643V18.7356C7.35001 17.3375 8.10804 16.0492 9.33028 15.3701L26.1303 6.03679ZM28.1699 9.09636C28.0642 9.03763 27.9358 9.03763 27.8301 9.09636L11.03 18.4297C10.9189 18.4914 10.85 18.6085 10.85 18.7356V37.2643C10.85 37.3914 10.9189 37.5086 11.03 37.5704L27.8301 46.9037C27.9358 46.9623 28.0642 46.9623 28.1699 46.9037L44.9699 37.5704C45.0812 37.5086 45.15 37.3914 45.15 37.2643V18.7356C45.15 18.6085 45.0812 18.4914 44.9699 18.4297L28.1699 9.09636Z" fill="url(#paint0_linear_2420_235)"/>
<path fill-rule="evenodd" clip-rule="evenodd" d="M16.9167 28C16.9167 21.8788 21.8789 16.9167 28 16.9167C34.1213 16.9167 39.0833 21.8788 39.0833 28C39.0833 34.1213 34.1213 39.0833 28 39.0833C21.8789 39.0833 16.9167 34.1213 16.9167 28ZM28 20.4167C23.8119 20.4167 20.4167 23.8119 20.4167 28C20.4167 32.1881 23.8119 35.5833 28 35.5833C32.1881 35.5833 35.5833 32.1881 35.5833 28C35.5833 23.8119 32.1881 20.4167 28 20.4167Z" fill="url(#paint1_linear_2420_235)"/>
<defs>
<linearGradient id="paint0_linear_2420_235" x1="25.9207" y1="5.55231" x2="25.9207" y2="50.4477" gradientUnits="userSpaceOnUse">
<stop offset="0.0001" stop-color="#ED0189"/>
<stop offset="1" stop-color="#F3293B"/>
</linearGradient>
<linearGradient id="paint1_linear_2420_235" x1="25.9207" y1="5.55231" x2="25.9207" y2="50.4477" gradientUnits="userSpaceOnUse">
<stop offset="0.0001" stop-color="#ED0189"/>
<stop offset="1" stop-color="#F3293B"/>
</linearGradient>
</defs>
</svg>

<svg xmlns="http://www.w3.org/2000/svg" fill="none" viewBox="0 0 56 56">
  <path fill="currentColor" fill-rule="" d="M26.13 6.037a3.85 3.85 0 0 1 3.74 0l16.8 9.333a3.85 3.85 0 0 1 1.98 3.366v18.528a3.85 3.85 0 0 1-1.98 3.366l-16.8 9.333a3.85 3.85 0 0 1-3.74 0L9.33 40.63a3.85 3.85 0 0 1-1.98-3.366V18.736a3.85 3.85 0 0 1 1.98-3.366l16.8-9.333Zm2.04 3.06a.35.35 0 0 0-.34 0l-16.8 9.333a.35.35 0 0 0-.18.306v18.528a.35.35 0 0 0 .18.306l16.8 9.334a.35.35 0 0 0 .34 0l16.8-9.334a.35.35 0 0 0 .18-.306V18.736a.35.35 0 0 0-.18-.306l-16.8-9.334Z" />
  <path fill="currentColor" fill-rule="" d="M16.917 28c0-6.121 4.962-11.083 11.083-11.083S39.083 21.879 39.083 28 34.121 39.083 28 39.083 16.917 34.121 16.917 28ZM28 20.417a7.583 7.583 0 1 0 0 15.166 7.583 7.583 0 0 0 0-15.166Z"/>
</svg>
